src/app/components/images/Position_marker_4.svg

<svg width="43" height="43" fill="none" xmlns="http://www.w3.org/2000/svg"><mask id="a" style="mask-type:alpha" maskUnits="userSpaceOnUse" x="4" y="4" width="35" height="35"><circle cx="21.5" cy="21.5" r="17.5" fill="#AB4F27"/></mask><g mask="url(#a)"><path fill="#C65F33" d="M-17.724-9.276H65.15v63.965h-82.874z"/><path d="M44.62 4C28.188 39.505 16.87 42.223-7.939 9.36l3.514 34.462 52.56-5.36L44.62 4z" fill="#BE4410"/><path d="M25.52 25.16c0 1.856.088 3.184.264 3.984 0 .16-.344.328-1.032.504-.688.176-1.28.264-1.776.264l-.648-.072c-.064-.096-.096-.424-.096-.984s.032-1.768.096-3.624c-.912.048-2.344.072-4.296.072-1.936 0-2.936-.032-3-.096-.144-.144-.264-.376-.36-.696a4.258 4.258 0 0 1-.168-.888l-.024-.36c0-.432.96-2.104 2.88-5.016s3.392-4.928 4.416-6.048c.112-.112.424-.2.936-.264a12.183 12.183 0 0 1 1.512-.096c.496 0 .744.072.744.216 0 .032-.008.056-.024.072-.992 1.136-1.488 1.768-1.488 1.896 1.44.032 2.16.152 2.16.36-.08 2.416-.12 4.856-.12 7.32v.912c.8 0 1.288-.016 1.464-.048.192-.048.288-.024.288.072 0 .448-.12.936-.36 1.464-.224.528-.4.856-.528.984-.016.016-.296.04-.84.072zm-5.688-2.472 2.592-.024c.112-2.688.168-4.568.168-5.64 0-1.088-.024-1.632-.072-1.632-.352.352-1.184 1.536-2.496 3.552-1.312 2-1.968 3.208-1.968 3.624 0 .08.592.12 1.776.12z" fill="#fff"/></g><g filter="url(#b)"><circle cx="21.5" cy="21.5" r="16.5" stroke="#7B432B" stroke-width="2"/></g><defs><filter id="b" x="0" y="0" width="43" height="43" filterUnits="userSpaceOnUse" color-interpolation-filters="sRGB"><feFlood flood-opacity="0" result="BackgroundImageFix"/><feBlend in="SourceGraphic" in2="BackgroundImageFix" result="shape"/><feGaussianBlur stdDeviation="2" result="effect1_foregroundBlur_44_479"/></filter></defs></svg>

<svg width="43" height="43" viewBox="0 0 43 43" fill="none" xmlns="http://www.w3.org/2000/svg">
<mask id="mask0_44_479" style="mask-type:alpha" maskUnits="userSpaceOnUse" x="4" y="4" width="35" height="35">
<circle cx="21.5" cy="21.5" r="17.5" fill="#AB4F27"/>
</mask>
<g mask="url(#mask0_44_479)">
<rect x="-17.7241" y="-9.27586" width="82.8736" height="63.9655" fill="#C65F33"/>
<path d="M44.6204 3.99999C28.1879 39.5046 16.8689 42.2229 -7.93866 9.3595L-4.42453 43.8216L48.1346 38.4621L44.6204 3.99999Z" fill="#BE4410"/>
<path d="M25.52 25.16C25.52 27.016 25.608 28.344 25.784 29.144C25.784 29.304 25.44 29.472 24.752 29.648C24.064 29.824 23.472 29.912 22.976 29.912L22.328 29.84C22.264 29.744 22.232 29.416 22.232 28.856C22.232 28.296 22.264 27.088 22.328 25.232C21.416 25.28 19.984 25.304 18.032 25.304C16.096 25.304 15.096 25.272 15.032 25.208C14.888 25.064 14.768 24.832 14.672 24.512C14.576 24.176 14.52 23.88 14.504 23.624L14.48 23.264C14.48 22.832 15.44 21.16 17.36 18.248C19.28 15.336 20.752 13.32 21.776 12.2C21.888 12.088 22.2 12 22.712 11.936C23.224 11.872 23.728 11.84 24.224 11.84C24.72 11.84 24.968 11.912 24.968 12.056C24.968 12.088 24.96 12.112 24.944 12.128C23.952 13.264 23.456 13.896 23.456 14.024C24.896 14.056 25.616 14.176 25.616 14.384C25.536 16.8 25.496 19.24 25.496 21.704V22.616C26.296 22.616 26.784 22.6 26.96 22.568C27.152 22.52 27.248 22.544 27.248 22.64C27.248 23.088 27.128 23.576 26.888 24.104C26.664 24.632 26.488 24.96 26.36 25.088C26.344 25.104 26.064 25.128 25.52 25.16ZM19.832 22.688L22.424 22.664C22.536 19.976 22.592 18.096 22.592 17.024C22.592 15.936 22.568 15.392 22.52 15.392C22.168 15.744 21.336 16.928 20.024 18.944C18.712 20.944 18.056 22.152 18.056 22.568C18.056 22.648 18.648 22.688 19.832 22.688Z" fill="white"/>
</g>
<g filter="url(#filter0_f_44_479)">
<circle cx="21.5" cy="21.5" r="16.5" stroke="#7B432B" stroke-width="2"/>
</g>
<defs>
<filter id="filter0_f_44_479" x="0" y="0" width="43" height="43" filterUnits="userSpaceOnUse" color-interpolation-filters="sRGB">
<feFlood flood-opacity="0" result="BackgroundImageFix"/>
<feBlend mode="normal" in="SourceGraphic" in2="BackgroundImageFix" result="shape"/>
<feGaussianBlur stdDeviation="2" result="effect1_foregroundBlur_44_479"/>
</filter>
</defs>
</svg>
